X: 12202
T: the Ragged Sailor
%R: jig
B: James Oswald "The Caledonian Pocket Companion" v.1 b.1 p.20 #2
Z: 2020 John Chambers <jc:trillian.mit.edu>
M: 6/8
L: 1/8
K: G
"_Brisk"D |\
GAB (gf)e | (dB)G (AB)d | e2A A2B |\
GAB gfe | (dB)G (AB)c | TB2A G2 :|
|: d |\
(ec)e (dB)d | (ec)e (dB)d | c2B A2d |\
(ec)e (dB)d | (e/f/)ge dAc | TB2A G2 :|
